X:291
T:Rondo in the Turnpike Gate(primo) RH.047
T:Turnpike Gate,aka. RH.047
R:jig 32
S:Rev.R.Harrison's MS,c1815,Cumbria
N:Odd placing of the bar lines, a la Italian.
O:England
A:Temple Sowerby,Cumbria
Z:vmp.Simon Wilson. Review PJH, 2008.
M:6/8
L:1/8
Q:3/8=120
K:D
V:1
|:ded|f2d g2e|a2f ded|e2g B2e|c2A ded|!
f2d g2e|a2f ded|e2g ABc|d3||!
aba|a2f f2f|g2e efe|f2d d2d|e2A ABA|!
d2d ede|f2f gfg|aba agf|f2" DC"e|]
V:2
|:z3|D3 E3|F3 z3|G3 E3|A3 z3|!
D3 E3|F3 z3|(G2B) (A2G)|F3||!
z3|DFA DFA|EGA EGA|DFA DFA|E3 G3|!
F2F A2A|d2d ede|fgf fed|d2" DC"A|]

